icon-themes/sifr_svg/cmd/lc_connectorcurve.svg

<svg viewBox="0 0 24 24" xmlns="http://www.w3.org/2000/svg"><path d="m5 1c-2.1972955 0-4 1.8027043-4 4s1.8027045 4 4 4c1.8503027 0 3.4055917-1.284213 3.8554688-3h5.6523432l1 .0039062c1.388872.0045401 2.491679 1.1091694 2.492188 2.4980469.000509 1.3888776-1.101368 2.4963989-2.490234 2.5019529l-.509766.001953v-.005859h-5.515625v-.007812l-1 .003906c-2.4671759.008058-4.4834706 2.030858-4.484375 4.498047s2.0152525 4.492092 4.4824219 4.501953l.5175781.001953v.001953h.4824219 5.6621091c.449877 1.715787 2.005166 3 3.855469 3 2.197296 0 4-1.802704 4-4s-1.802704-4-4-4c-1.850303 0-3.405592 1.284213-3.855469 3h-5.6542966l-1-.003906c-1.3888665-.005555-2.4907435-1.111123-2.4902344-2.5.0005091-1.388878 1.1033173-2.4955 2.4921875-2.5l.5078125-.001953v.005859h5.517578v.007812l1-.003906c2.467168-.00987 4.483326-2.034764 4.482422-4.5019529s-2.017199-4.489989-4.484375-4.4980469l-.515625-.0019531v-.0019531h-6.1445312c-.4498771-1.715787-2.0051661-3-3.8554688-3zm0 2c1.1164148 0 2 .8835841 2 2s-.8835852 2-2 2-2-.8835841-2-2 .8835852-2 2-2zm14 14c1.116415 0 2 .883584 2 2s-.883585 2-2 2-2-.883584-2-2 .883585-2 2-2z" fill="#555753"/></svg>

<svg xmlns="http://www.w3.org/2000/svg" viewBox="0 0 24 24">
 <path
     style="fill:#555753"
     d="M 5 1 C 2.8027045 1 1 2.8027043 1 5 C 1 7.1972957 2.8027045 9 5 9 C 6.8503027 9 8.4055917 7.715787 8.8554688 6 L 14.507812 6 L 15.507812 6.0039062 C 16.896684 6.0084463 17.999491 7.1130756 18 8.5019531 C 18.000509 9.8908307 16.898632 10.998352 15.509766 11.003906 L 15 11.005859 L 15 11 L 9.484375 11 L 9.484375 10.992188 L 8.484375 10.996094 C 6.0171991 11.004152 4.0009044 13.026952 4 15.494141 C 3.9990956 17.96133 6.0152525 19.986233 8.4824219 19.996094 L 9 19.998047 L 9 20 L 9.4824219 20 L 15.144531 20 C 15.594408 21.715787 17.149697 23 19 23 C 21.197296 23 23 21.197296 23 19 C 23 16.802704 21.197296 15 19 15 C 17.149697 15 15.594408 16.284213 15.144531 18 L 9.4902344 18 L 8.4902344 17.996094 C 7.1013679 17.990539 5.9994909 16.884971 6 15.496094 C 6.0005091 14.107216 7.1033173 13.000594 8.4921875 12.996094 L 9 12.994141 L 9 13 L 14.517578 13 L 14.517578 13.007812 L 15.517578 13.003906 C 17.984746 12.994036 20.000904 10.969142 20 8.5019531 C 19.999096 6.0347642 17.982801 4.0119641 15.515625 4.0039062 L 15 4.0019531 L 15 4 L 8.8554688 4 C 8.4055917 2.284213 6.8503027 1 5 1 z M 5 3 C 6.1164148 3 7 3.8835841 7 5 C 7 6.1164159 6.1164148 7 5 7 C 3.8835852 7 3 6.1164159 3 5 C 3 3.8835841 3.8835852 3 5 3 z M 19 17 C 20.116415 17 21 17.883584 21 19 C 21 20.116416 20.116415 21 19 21 C 17.883585 21 17 20.116416 17 19 C 17 17.883584 17.883585 17 19 17 z "
     />
 </svg>
